svg/pill_off.svg

<svg xmlns="http://www.w3.org/2000/svg" viewBox="0 0 24 24"><path d="M22.11 21.46 2.39 1.73 1.11 3l5.7 5.7-2.59 2.59a6.01 6.01 0 0 0 0 8.49c2.34 2.34 6.14 2.34 8.49 0l2.59-2.59 5.54 5.54zM4.6 16.57a3.98 3.98 0 0 1 1.04-3.86l2.59-2.59 1.41 1.41zm6.18-8.99L9.36 6.16l1.93-1.94a6.01 6.01 0 0 1 8.49 0c2.34 2.34 2.34 6.14 0 8.49l-1.93 1.94-1.42-1.42 1.93-1.94a3.98 3.98 0 0 0 0-5.65 3.98 3.98 0 0 0-5.65 0z"/></svg>

<svg xmlns="http://www.w3.org/2000/svg" id="mdi-pill-off" viewBox="0 0 24 24"><path d="M22.11 21.46L2.39 1.73L1.11 3L6.81 8.7L4.22 11.29C1.88 13.64 1.88 17.43 4.22 19.78C6.56 22.12 10.36 22.12 12.71 19.78L15.3 17.19L20.84 22.73L22.11 21.46M4.6 16.57C4.24 15.24 4.59 13.75 5.64 12.71L8.23 10.12L9.64 11.53L4.6 16.57M10.78 7.58L9.36 6.16L11.29 4.22C13.64 1.88 17.43 1.88 19.78 4.22C22.12 6.56 22.12 10.36 19.78 12.71L17.85 14.65L16.43 13.23L18.36 11.29C19.93 9.73 19.93 7.2 18.36 5.64C16.8 4.07 14.27 4.07 12.71 5.64L10.78 7.58Z" /></svg>
